X: 82
T: Mater digna Dei
C: Gaspar van Weerbeke
%%abc-version 2.0
%%abcx-abcm2ps-target-version 5.9.1 (29 Sep 2008)
%%abc-creator hum2abc beta
%%abcx-conversion-date 2022/03/06 13:05:59
%%abc-copyright Copyright 2008, Pavanello, Agnese
%%abc-edited-by Mair-Gruber, Roland
%%humdrum-veritas 650707794
%%humdrum-veritas-data 90291630
%%linebreak <none>
%%barnumbers 0
L: 1/4
M: 2/2
N: Derived from Gas0407-Mater_digna_Dei.krn
%%staves [1 2 3 4]
V: 1 clef=treble
V: 2 clef=treble-8
V: 3 clef=treble-8
V: 4 clef=bass
K: C
[V:1] !fermata!A4 | 
[V:2] !fermata!e4 | 
[V:3] !fermata!A4 | 
[V:4] !fermata!A,,4 | 
[V:1] !fermata!G4 | 
[V:2] !fermata!e4 | 
[V:3] !fermata!B4 | 
[V:4] !fermata!E,4 | 
[V:1] !fermata!c4 | 
[V:2] !fermata!c4 | 
[V:3] !fermata!A4 | 
[V:4] !fermata!F,4 | 
[V:1] !fermata!B4 | 
[V:2] !fermata!g4 | 
[V:3] !fermata!d4 | 
[V:4] !fermata!G,4 | 
[V:1] !fermata!A4 | 
[V:2] !fermata!e4 | 
[V:3] !fermata!c4 | 
[V:4] !fermata!A,4 | 
[V:1] !fermata!G4 | 
[V:2] !fermata!e4 | 
[V:3] !fermata!B4 | 
[V:4] !fermata!E,4 | 
[V:1] z4 | 
[V:2] B2cc | 
[V:3] z4 | 
[V:4] E,2E,E, | 
[V:1] z4 | 
[V:2] d2e3/d/ | 
[V:3] z4 | 
[V:4] F,2E,2 | 
[V:1] z4 | 
[V:2] B2cc | 
[V:3] G2AA | 
[V:4] E,2A,,2 | 
[V:1] G2AA | 
[V:2] d>cA2 | 
[V:3] B2c3/B/ | 
[V:4] G,,G,F,2 | 
[V:1] B2c3/B/ | 
[V:2] zg>fe/d/ | 
[V:3] G2z2 | 
[V:4] G,E,2C, | 
[V:1] Gc2B- | 
[V:2] cB/A/Gg- | 
[V:3] e2ed- | 
[V:4] C,>D, E,/F,/G,- | 
[V:1] BA2^G | 
[V:2] g/ f/e3 | 
[V:3] dcB2 | 
[V:4] G,A,E,2 | 
[V:1] A4 | 
[V:2] e4 | 
[V:3] A4 | 
[V:4] z2A,,2 | 
[V:1] z4 | 
[V:2] z2A2 | 
[V:3] z4 | 
[V:4] B,,C,>B,,A,, | 
[V:1] z4 | 
[V:2] Bc2B/A/ | 
[V:3] z2A2 | 
[V:4] G,,A,,2A, | 
[V:1] z2A2 | 
[V:2] dec3/d/ | 
[V:3] Bc>BA | 
[V:4] G,E,F,2 | 
[V:1] Bc>BA | 
[V:2] e2e2 | 
[V:3] GA>GF | 
[V:4] E,A,,>B,,C,/D,/ | 
[V:1] GA>GF | 
[V:2] cdA3/B/ | 
[V:3] EFD2 | 
[V:4] E,D,F,2 | 
[V:1] E>FD2 | 
[V:2] cg3 | 
[V:3] Cc2B | 
[V:4] G,C,G,2 | 
[V:1] C4 | 
[V:2] e4 | 
[V:3] c4 | 
[V:4] C,4 | 
[V:1] E2E2 | 
[V:2] g2g2 | 
[V:3] c2c2 | 
[V:4] zC,C,2 | 
[V:1] DDEF- | 
[V:2] ggec- | 
[V:3] BBcA- | 
[V:4] G,G,C,F,- | 
[V:1] FE2D | 
[V:2] c/B/cA3/G/ | 
[V:3] AGF2 | 
[V:4] F,C,D,2 | 
[V:1] E4 | 
[V:2] B4 | 
[V:3] E4 | 
[V:4] G,4 | 
[V:1] z4 | 
[V:2] B>cde- | 
[V:3] z4 | 
[V:4] E,2F,E, | 
[V:1] z4 | 
[V:2] ed/c/ d/c/B/A/ | 
[V:3] z4 | 
[V:4] G,A,G,F, | 
[V:1] z4 | 
[V:2] Gc2B | 
[V:3] z4 | 
[V:4] G,E,D,2 | 
[V:1] G>ABc- | 
[V:2] c2z2 | 
[V:3] e2de- | 
[V:4] C,2z2 | 
[V:1] cB/A/ B/A/G/F/ | 
[V:2] z4 | 
[V:3] ed/c/de | 
[V:4] z4 | 
[V:1] EA2^G | 
[V:2] z4 | 
[V:3] cdB2 | 
[V:4] z4 | 
[V:1] A4 | 
[V:2] z4 | 
[V:3] A4 | 
[V:4] z4 | 
[V:1] !fermata!A4 | 
[V:2] !fermata!A4 | 
[V:3] !fermata!c4 | 
[V:4] !fermata!F,4 | 
[V:1] !fermata!G4 | 
[V:2] !fermata!e4 | 
[V:3] !fermata!c4 | 
[V:4] !fermata!C,4 | 
[V:1] !fermata!F4 | 
[V:2] !fermata!d4 | 
[V:3] !fermata!A4 | 
[V:4] !fermata!D,4 | 
[V:1] !fermata!E4 | 
[V:2] !fermata!c4 | 
[V:3] !fermata!A4 | 
[V:4] !fermata!A,,4 | 
[V:1] !fermata!D4 | 
[V:2] F2!fermata!G2 | 
[V:3] !fermata!D4 | 
[V:4] !fermata!_B,,4 | 
[V:1] !fermata!C4 | 
[V:2] !fermata!A4 | 
[V:3] !fermata!E4 | 
[V:4] !fermata!A,,4 | 
[V:1] E4 | 
[V:2] G2Ee- | 
[V:3] E2G3/A/ | 
[V:4] C,2E,2- | 
[V:1] G2A2 | 
[V:2] e/d/c/B/A2 | 
[V:3] Bc2B/A/ | 
[V:4] E,2F,2 | 
[V:1] B2cd- | 
[V:2] zgfg | 
[V:3] G2cB | 
[V:4] G,2A,G, | 
[V:1] dc2B | 
[V:2] e>fg2 | 
[V:3] c2d2 | 
[V:4] A,CG,2 | 
[V:1] c2z2 | 
[V:2] e2ee- | 
[V:3] c4 | 
[V:4] C,4 | 
[V:1] G2AG- | 
[V:2] ed/c/de | 
[V:3] z4 | 
[V:4] E,2F,E,- | 
[V:1] GF/E/FG | 
[V:2] BcAB | 
[V:3] G2AG- | 
[V:4] E,D,/C,/F,E, | 
[V:1] E2zE | 
[V:2] c>BAG | 
[V:3] GF/E/FG | 
[V:4] C,2z2 | 
[V:1] GGDD | 
[V:2] B2zB | 
[V:3] EEGG | 
[V:4] z4 | 
[V:1] F>EC2 | 
[V:2] ddA3/B/ | 
[V:3] D2F3/E/ | 
[V:4] z4 | 
[V:1] z4 | 
[V:2] c>BGB | 
[V:3] CE>DG- | 
[V:4] z4 | 
[V:1] c2B2 | 
[V:2] A2Gg | 
[V:3] G^FG2 | 
[V:4] z2G,2 | 
[V:1] A2G2 | 
[V:2] efde | 
[V:3] c2B2 | 
[V:4] A,F,G,E, | 
[V:1] c2BA- | 
[V:2] c2zf | 
[V:3] A2Gc | 
[V:4] F,2G,F, | 
[V:1] AG2^F | 
[V:2] d/B/cd2 | 
[V:3] BGA2 | 
[V:4] G,E,D,2 | 
[V:1] !fermata!G4 | 
[V:2] !fermata!B4 | 
[V:3] !fermata!G4 | 
[V:4] !fermata!E,4 | 
[V:1] B2BB | 
[V:2] z2e2 | 
[V:3] z4 | 
[V:4] z4 | 
[V:1] c2A2 | 
[V:2] eef2 | 
[V:3] z4 | 
[V:4] z4 | 
[V:1] B2B/A/G/F/ | 
[V:2] d2e2 | 
[V:3] z4 | 
[V:4] z4 | 
[V:1] G4 | 
[V:2] e/d/c/B/c2 | 
[V:3] z4 | 
[V:4] z4 | 
[V:1] E2EE- | 
[V:2] c2cc- | 
[V:3] z4 | 
[V:4] z4 | 
[V:1] EEFE | 
[V:2] ccdc | 
[V:3] z4 | 
[V:4] z4 | 
[V:1] FG>FE | 
[V:2] de>dc | 
[V:3] z4 | 
[V:4] z4 | 
[V:1] F/E/D/C/D2 | 
[V:2] d/c/B/A/B2 | 
[V:3] z4 | 
[V:4] z4 | 
[V:1] E4 | 
[V:2] c4 | 
[V:3] z4 | 
[V:4] z4 | 
[V:1] E4 | 
[V:2] G4 | 
[V:3] c4 | 
[V:4] C,4 | 
[V:1] E2G2- | 
[V:2] G2c2- | 
[V:3] c2G2- | 
[V:4] C,2C,2- | 
[V:1] G2G2 | 
[V:2] c2d2 | 
[V:3] G2B2 | 
[V:4] C,2B,,2 | 
[V:1] A4 | 
[V:2] e4 | 
[V:3] c4 | 
[V:4] A,,4 | 
[V:1] !fermata!G4 | 
[V:2] !fermata!e4 | 
[V:3] !fermata!B4 | 
[V:4] !fermata!E,4 | 
[V:1] G4 | 
[V:2] e4 | 
[V:3] B4 | 
[V:4] E,4 | 
[V:1] A2G2 | 
[V:2] f2e2 | 
[V:3] d2B2 | 
[V:4] D,2E,2 | 
[V:1] c4 | 
[V:2] g4 | 
[V:3] e4 | 
[V:4] C,4 | 
[V:1] !fermata!B4 | 
[V:2] !fermata!g4 | 
[V:3] !fermata!d4 | 
[V:4] !fermata!G,,4 | 
[V:1] E2FG- | 
[V:2] G2AG | 
[V:3] c2de- | 
[V:4] C,2F,E,- | 
[V:1] GAB2- | 
[V:2] gfg2 | 
[V:3] ecd2 | 
[V:4] E,A,G,2 | 
[V:1] BAA2- | 
[V:2] c2d2 | 
[V:3] A4 | 
[V:4] F,4 | 
[V:1] A2^G2 | 
[V:2] e4 | 
[V:3] B4 | 
[V:4] E,4 | 
[V:1] A4 |]  
[V:2] e4 |]  
[V:3] A4 |]  
[V:4] A,,4 |]  


